N1 T1 D1 M06
N3 G54
N5 G0 G17 G90 X5 Y55 Z0
N8 G1 Z-6 F3000 S800 M03
N10 G41 X30 Y60 F3000
N20 X40 Y80
N30 G2 X65 Y55 I0 J-25
N40 G1 X95
N50 G2 X110 Y70 I15 J0
N60 G1 X105 Y45
N70 X110 Y35
N80 X90
N90 X65 Y15
N100 X40 Y40
N110 X30 Y60
N120 G40 X5 Y60
N130 G0 Z50
N140 M2


O32123 (NC Viewer Demo File)
(Using high feed G1 F500. instead of G0.)
(T1 D=0.5 CR=0. - ZMIN=0. - flat end mill)
(T3 D=0.125 CR=0.0625 - ZMIN=0.5 - ball end mill)
N10 G90 G94 G17 G69
N15 G20
N20 G53 G0 Z0.

(Adaptive1)
N30 T1 M6
N35 S7640 M3
N40 G54
N45 M8
N60 G0 X5 Y55
N65 G1 Z-6
N75 G41 X30 Y60
N80 X40 Y80
N85 G2 X65 Y55 I0 J-25
N90 G1 X95
N95 G2 X110 Y70 I15 J0
N100 G1 X105 Y45
N105 X110 Y35
N110 X90
N115 X65 Y15
N120 X40 Y40
N125 X30 Y60
N130 G40 X5 Y60
N135 G0 Z50